X: 57
T: Swingin' in a Leisure Suit
C: by Mick Doherty
%D:1990
B: PC2 p.199
S: Fiddle Hell Online 2021-10-13
Z: 2022 John Chambers <jc:trillian.mit.edu>
M: C|
L: 1/8
K: G
%%continueall
"^A"|:\
"G"gedB "Am"A2BA | "G"G2BG AGEG | DEGA BGAB | "C"edB2 "D"A4 || "G"gedB "Am"A2BA |\
"G"G2BG AGEG | "C"DGce "G"dcBg- | "D"gBA2 "G"G4 "^B":: "G"[G2B,2] [G4B,4] GA | BAGE DEG2 |\
"F"[A2=F2] [A4F4] AB | "D"cBAG EGA2 || "G"[G2B,2] [G4B,4] Bc | dcBA GABG | "C"DGce "G"dcBg- | "D"gBA2 "G"G4 :|


